svg/color/dnflx.svg

<?xml version="1.0" encoding="UTF-8" ?>
<!DOCTYPE svg PUBLIC "-//W3C//DTD SVG 1.1//EN" "http://www.w3.org/Graphics/SVG/1.1/DTD/svg11.dtd">
<svg width="239pt" height="250pt" viewBox="0 0 239 250" version="1.1" xmlns="http://www.w3.org/2000/svg">
<g id="#fefefeff">
<path fill="#fefefe" opacity="1.00" d=" M 0.00 0.00 L 239.00 0.00 L 239.00 250.00 L 0.00 250.00 L 0.00 0.00 M 105.17 15.55 C 100.20 16.73 95.46 19.12 90.18 18.62 C 78.42 22.16 66.93 26.96 56.69 33.83 C 36.85 47.86 20.73 67.81 13.31 91.11 C 11.00 96.34 10.97 102.18 9.23 107.59 C 6.60 115.83 7.75 124.53 7.50 133.02 C 7.10 141.85 10.11 150.29 11.61 158.88 C 14.76 170.19 20.47 180.57 26.77 190.40 C 30.17 195.51 34.83 199.57 38.58 204.41 C 50.63 216.25 64.61 226.64 80.87 231.85 C 84.94 233.09 88.85 235.10 93.16 235.44 C 97.97 235.65 102.30 238.37 107.13 238.45 C 115.74 238.61 124.36 238.59 132.97 238.49 C 137.82 238.61 142.14 235.85 146.92 235.52 C 151.83 235.38 156.10 232.71 160.70 231.32 C 169.03 227.92 177.40 224.15 184.39 218.36 C 191.12 212.81 198.42 207.74 203.64 200.63 C 210.24 193.66 215.45 185.53 219.79 177.00 C 223.74 168.50 227.43 159.76 228.75 150.43 C 231.45 142.56 230.52 134.16 230.76 126.00 C 230.44 119.28 231.52 112.30 228.92 105.91 C 228.04 95.64 224.04 85.93 219.67 76.69 C 215.22 68.65 210.67 60.51 204.20 53.89 C 199.79 48.24 194.14 43.81 188.93 38.96 C 177.65 29.21 163.74 23.14 149.70 18.63 C 144.77 18.91 140.30 16.83 135.68 15.60 C 125.52 15.19 115.33 15.28 105.17 15.55 Z" />
<path fill="#fefefe" opacity="1.00" d=" M 87.86 100.61 C 98.47 100.63 109.09 100.41 119.69 100.69 C 122.78 101.17 122.58 104.63 122.56 107.04 C 115.50 109.67 107.87 107.75 100.56 108.57 C 100.28 113.19 100.54 117.81 100.43 122.43 C 105.89 124.39 111.81 122.96 117.48 123.51 C 118.44 125.83 119.45 129.08 116.48 130.38 C 111.14 130.74 105.79 130.33 100.44 130.63 C 100.54 138.64 100.29 146.66 100.57 154.67 C 97.12 157.86 92.01 156.33 87.76 156.29 C 87.67 155.77 87.48 154.72 87.39 154.20 C 87.27 136.86 87.59 119.52 87.24 102.19 C 87.85 101.98 89.08 101.56 89.69 101.36 C 89.08 101.10 88.47 100.85 87.86 100.61 Z" />
<path fill="#fefefe" opacity="1.00" d=" M 37.41 101.26 C 41.95 100.00 46.86 100.31 51.35 101.63 C 51.52 103.87 52.10 106.05 53.18 108.03 C 57.42 116.17 61.58 124.35 65.03 132.86 C 66.02 131.05 67.63 129.34 67.41 127.12 C 67.45 118.41 67.31 109.70 67.45 100.99 C 71.03 100.66 75.29 99.54 78.40 101.89 C 78.63 118.60 78.42 135.32 78.52 152.03 C 78.22 153.42 79.32 156.22 77.21 156.47 C 73.06 156.72 68.90 156.48 64.75 156.51 C 60.31 146.90 55.17 137.47 52.22 127.28 C 50.94 127.27 49.66 127.26 48.38 127.26 C 48.47 135.51 48.38 143.76 48.46 152.02 C 48.37 153.52 48.73 155.35 47.29 156.35 C 44.01 156.74 40.71 156.49 37.42 156.52 C 37.42 138.10 37.44 119.68 37.41 101.26 Z" />
<path fill="#fefefe" opacity="1.00" d=" M 127.49 101.61 C 131.94 100.38 137.11 99.62 141.30 102.02 C 141.65 117.51 141.39 133.02 141.44 148.51 C 145.78 150.19 150.50 149.15 155.02 149.44 C 157.98 149.21 159.94 151.86 162.27 153.22 C 166.67 145.64 170.57 137.78 175.08 130.27 C 176.87 126.19 172.94 122.80 171.38 119.35 C 168.35 113.37 164.32 107.76 162.76 101.16 C 167.50 100.08 172.52 100.31 177.15 101.78 C 179.06 107.28 181.29 112.83 185.14 117.29 C 187.36 112.82 189.93 108.52 191.64 103.82 C 193.12 99.60 198.48 100.65 202.00 100.54 C 203.82 100.22 204.87 101.80 206.11 102.80 C 201.82 110.16 197.85 117.71 193.71 125.17 C 191.80 131.30 196.76 135.99 199.12 141.12 C 201.71 146.20 205.71 150.66 206.86 156.38 C 202.43 156.53 197.97 156.76 193.55 156.37 C 192.63 155.75 191.91 154.86 191.45 153.86 C 189.49 149.54 187.19 145.39 185.28 141.05 C 183.73 141.49 181.75 141.32 180.98 143.05 C 178.38 147.42 177.15 152.71 173.55 156.44 C 158.22 156.42 142.87 156.73 127.53 156.45 C 127.42 138.17 127.54 119.89 127.49 101.61 Z" />
</g>
<g id="#020203ff">
<path fill="#020203" opacity="1.00" d=" M 105.17 15.55 C 115.33 15.28 125.52 15.19 135.68 15.60 C 140.30 16.83 144.77 18.91 149.70 18.63 C 163.74 23.14 177.65 29.21 188.93 38.96 C 194.14 43.81 199.79 48.24 204.20 53.89 C 210.67 60.51 215.22 68.65 219.67 76.69 C 224.04 85.93 228.04 95.64 228.92 105.91 C 231.52 112.30 230.44 119.28 230.76 126.00 C 230.52 134.16 231.45 142.56 228.75 150.43 C 227.43 159.76 223.74 168.50 219.79 177.00 C 215.45 185.53 210.24 193.66 203.64 200.63 C 198.42 207.74 191.12 212.81 184.39 218.36 C 177.40 224.15 169.03 227.92 160.70 231.32 C 156.10 232.71 151.83 235.38 146.92 235.52 C 142.14 235.85 137.82 238.61 132.97 238.49 C 124.36 238.59 115.74 238.61 107.13 238.45 C 102.30 238.37 97.97 235.65 93.16 235.44 C 88.85 235.10 84.94 233.09 80.87 231.85 C 64.61 226.64 50.63 216.25 38.58 204.41 C 34.83 199.57 30.17 195.51 26.77 190.40 C 20.47 180.57 14.76 170.19 11.61 158.88 C 10.11 150.29 7.10 141.85 7.50 133.02 C 7.75 124.53 6.60 115.83 9.23 107.59 C 10.97 102.18 11.00 96.34 13.31 91.11 C 20.73 67.81 36.85 47.86 56.69 33.83 C 66.93 26.96 78.42 22.16 90.18 18.62 C 95.46 19.12 100.20 16.73 105.17 15.55 M 87.86 100.61 C 88.47 100.85 89.08 101.10 89.69 101.36 C 89.08 101.56 87.85 101.98 87.24 102.19 C 87.59 119.52 87.27 136.86 87.39 154.20 C 87.48 154.72 87.67 155.77 87.76 156.29 C 92.01 156.33 97.12 157.86 100.57 154.67 C 100.29 146.66 100.54 138.64 100.44 130.63 C 105.79 130.33 111.14 130.74 116.48 130.38 C 119.45 129.08 118.44 125.83 117.48 123.51 C 111.81 122.96 105.89 124.39 100.43 122.43 C 100.54 117.81 100.28 113.19 100.56 108.57 C 107.87 107.75 115.50 109.67 122.56 107.04 C 122.58 104.63 122.78 101.17 119.69 100.69 C 109.09 100.41 98.47 100.63 87.86 100.61 M 37.41 101.26 C 37.44 119.68 37.42 138.10 37.42 156.52 C 40.71 156.49 44.01 156.74 47.29 156.35 C 48.73 155.35 48.37 153.52 48.46 152.02 C 48.38 143.76 48.47 135.51 48.38 127.26 C 49.66 127.26 50.94 127.27 52.22 127.28 C 55.17 137.47 60.31 146.90 64.75 156.51 C 68.90 156.48 73.06 156.72 77.21 156.47 C 79.32 156.22 78.22 153.42 78.52 152.03 C 78.42 135.32 78.63 118.60 78.40 101.89 C 75.29 99.54 71.03 100.66 67.45 100.99 C 67.31 109.70 67.45 118.41 67.41 127.12 C 67.63 129.34 66.02 131.05 65.03 132.86 C 61.58 124.35 57.42 116.17 53.18 108.03 C 52.10 106.05 51.52 103.87 51.35 101.63 C 46.86 100.31 41.95 100.00 37.41 101.26 M 127.49 101.61 C 127.54 119.89 127.42 138.17 127.53 156.45 C 142.87 156.73 158.22 156.42 173.55 156.44 C 177.15 152.71 178.38 147.42 180.98 143.05 C 181.75 141.32 183.73 141.49 185.28 141.05 C 187.19 145.39 189.49 149.54 191.45 153.86 C 191.91 154.86 192.63 155.75 193.55 156.37 C 197.97 156.76 202.43 156.53 206.86 156.38 C 205.71 150.66 201.71 146.20 199.12 141.12 C 196.76 135.99 191.80 131.30 193.71 125.17 C 197.85 117.71 201.82 110.16 206.11 102.80 C 204.87 101.80 203.82 100.22 202.00 100.54 C 198.48 100.65 193.12 99.60 191.64 103.82 C 189.93 108.52 187.36 112.82 185.14 117.29 C 181.29 112.83 179.06 107.28 177.15 101.78 C 172.52 100.31 167.50 100.08 162.76 101.16 C 164.32 107.76 168.35 113.37 171.38 119.35 C 172.94 122.80 176.87 126.19 175.08 130.27 C 170.57 137.78 166.67 145.64 162.27 153.22 C 159.94 151.86 157.98 149.21 155.02 149.44 C 150.50 149.15 145.78 150.19 141.44 148.51 C 141.39 133.02 141.65 117.51 141.30 102.02 C 137.11 99.62 131.94 100.38 127.49 101.61 Z" />
</g>
</svg>

<?xml version="1.0" encoding="utf-8"?>
<!-- Generator: Adobe Illustrator 26.0.3, SVG Export Plug-In . SVG Version: 6.00 Build 0)  -->
<svg version="1.1" id="Layer_1" xmlns="http://www.w3.org/2000/svg" xmlns:xlink="http://www.w3.org/1999/xlink" x="0px" y="0px"
	 viewBox="0 0 239 250" style="enable-background:new 0 0 239 250;" xml:space="preserve">
<style type="text/css">
	.st0{fill:#FEFEFE;}
	.st1{fill:#020203;}
</style>
<g id="_x23_fefefeff">
	<path class="st0" d="M87.9,100.6c10.6,0,21.2-0.2,31.8,0.1c3.1,0.5,2.9,3.9,2.9,6.3c-7.1,2.6-14.7,0.7-22,1.5
		c-0.3,4.6,0,9.2-0.1,13.9c5.5,2,11.4,0.5,17.1,1.1c1,2.3,2,5.6-1,6.9c-5.3,0.4-10.7-0.1-16,0.2c0.1,8-0.2,16,0.1,24
		c-3.4,3.2-8.6,1.7-12.8,1.6c-0.1-0.5-0.3-1.6-0.4-2.1c-0.1-17.3,0.2-34.7-0.2-52c0.6-0.2,1.8-0.6,2.5-0.8
		C89.1,101.1,88.5,100.8,87.9,100.6z"/>
	<path class="st0" d="M37.4,101.3c4.5-1.3,9.5-1,13.9,0.4c0.2,2.2,0.8,4.4,1.8,6.4c4.2,8.1,8.4,16.3,11.8,24.8
		c1-1.8,2.6-3.5,2.4-5.7c0-8.7-0.1-17.4,0-26.1c3.6-0.3,7.8-1.4,11,0.9c0.2,16.7,0,33.4,0.1,50.1c-0.3,1.4,0.8,4.2-1.3,4.4
		c-4.2,0.2-8.3,0-12.5,0c-4.4-9.6-9.6-19-12.5-29.2c-1.3,0-2.6,0-3.8,0c0.1,8.2,0,16.5,0.1,24.8c-0.1,1.5,0.3,3.3-1.2,4.3
		c-3.3,0.4-6.6,0.1-9.9,0.2C37.4,138.1,37.4,119.7,37.4,101.3z"/>
	<path class="st0" d="M127.5,101.6c4.5-1.2,9.6-2,13.8,0.4c0.3,15.5,0.1,31,0.1,46.5c4.3,1.7,9.1,0.6,13.6,0.9
		c3-0.2,4.9,2.4,7.2,3.8c4.4-7.6,8.3-15.4,12.8-22.9c1.8-4.1-2.1-7.5-3.7-10.9c-3-6-7.1-11.6-8.6-18.2c4.7-1.1,9.8-0.9,14.4,0.6
		c1.9,5.5,4.1,11.1,8,15.5c2.2-4.5,4.8-8.8,6.5-13.5c1.5-4.2,6.8-3.2,10.4-3.3c1.8-0.3,2.9,1.3,4.1,2.3c-4.3,7.4-8.3,14.9-12.4,22.4
		c-1.9,6.1,3,10.8,5.4,15.9c2.6,5.1,6.6,9.5,7.7,15.3c-4.4,0.1-8.9,0.4-13.3,0c-0.9-0.6-1.6-1.5-2.1-2.5c-2-4.3-4.3-8.5-6.2-12.8
		c-1.6,0.4-3.5,0.3-4.3,2c-2.6,4.4-3.8,9.7-7.4,13.4c-15.3,0-30.7,0.3-46,0C127.4,138.2,127.5,119.9,127.5,101.6z"/>
</g>
<g id="_x23_020203ff">
	<path class="st1" d="M105.2,15.6c10.2-0.3,20.3-0.4,30.5,0.1c4.6,1.2,9.1,3.3,14,3c14,4.5,27.9,10.6,39.2,20.3
		c5.2,4.9,10.9,9.3,15.3,14.9c6.5,6.6,11,14.8,15.5,22.8c4.4,9.2,8.4,18.9,9.2,29.2c2.6,6.4,1.5,13.4,1.8,20.1
		c-0.2,8.2,0.7,16.6-2,24.4c-1.3,9.3-5,18.1-9,26.6c-4.3,8.5-9.5,16.7-16.1,23.6c-5.2,7.1-12.5,12.2-19.2,17.7
		c-7,5.8-15.4,9.6-23.7,13c-4.6,1.4-8.9,4.1-13.8,4.2c-4.8,0.3-9.1,3.1-13.9,3c-8.6,0.1-17.2,0.1-25.8,0c-4.8-0.1-9.2-2.8-14-3
		c-4.3-0.3-8.2-2.4-12.3-3.6c-16.3-5.2-30.2-15.6-42.3-27.4c-3.8-4.8-8.4-8.9-11.8-14c-6.3-9.8-12-20.2-15.2-31.5
		c-1.5-8.6-4.5-17-4.1-25.9c0.2-8.5-0.9-17.2,1.7-25.4c1.7-5.4,1.8-11.2,4.1-16.5c7.4-23.3,23.5-43.2,43.4-57.3
		C66.9,27,78.4,22.2,90.2,18.6C95.5,19.1,100.2,16.7,105.2,15.6 M87.9,100.6c0.6,0.2,1.2,0.5,1.8,0.8c-0.6,0.2-1.8,0.6-2.5,0.8
		c0.3,17.3,0,34.7,0.2,52c0.1,0.5,0.3,1.6,0.4,2.1c4.2,0,9.4,1.6,12.8-1.6c-0.3-8,0-16-0.1-24c5.3-0.3,10.7,0.1,16-0.2
		c3-1.3,2-4.6,1-6.9c-5.7-0.6-11.6,0.9-17.1-1.1c0.1-4.6-0.2-9.2,0.1-13.9c7.3-0.8,14.9,1.1,22-1.5c0-2.4,0.2-5.9-2.9-6.3
		C109.1,100.4,98.5,100.6,87.9,100.6 M37.4,101.3c0,18.4,0,36.8,0,55.3c3.3,0,6.6,0.2,9.9-0.2c1.4-1,1.1-2.8,1.2-4.3
		c-0.1-8.3,0-16.5-0.1-24.8c1.3,0,2.6,0,3.8,0c2.9,10.2,8.1,19.6,12.5,29.2c4.2,0,8.3,0.2,12.5,0c2.1-0.2,1-3.1,1.3-4.4
		c-0.1-16.7,0.1-33.4-0.1-50.1c-3.1-2.3-7.4-1.2-11-0.9c-0.1,8.7,0,17.4,0,26.1c0.2,2.2-1.4,3.9-2.4,5.7
		c-3.4-8.5-7.6-16.7-11.8-24.8c-1.1-2-1.7-4.2-1.8-6.4C46.9,100.3,42,100,37.4,101.3 M127.5,101.6c0.1,18.3-0.1,36.6,0,54.8
		c15.3,0.3,30.7,0,46,0c3.6-3.7,4.8-9,7.4-13.4c0.8-1.7,2.8-1.6,4.3-2c1.9,4.3,4.2,8.5,6.2,12.8c0.5,1,1.2,1.9,2.1,2.5
		c4.4,0.4,8.9,0.2,13.3,0c-1.1-5.7-5.1-10.2-7.7-15.3c-2.4-5.1-7.3-9.8-5.4-15.9c4.1-7.5,8.1-15,12.4-22.4c-1.2-1-2.3-2.6-4.1-2.3
		c-3.5,0.1-8.9-0.9-10.4,3.3c-1.7,4.7-4.3,9-6.5,13.5c-3.9-4.5-6.1-10-8-15.5c-4.6-1.5-9.6-1.7-14.4-0.6c1.6,6.6,5.6,12.2,8.6,18.2
		c1.6,3.5,5.5,6.8,3.7,10.9c-4.5,7.5-8.4,15.4-12.8,22.9c-2.3-1.4-4.3-4-7.2-3.8c-4.5-0.3-9.2,0.8-13.6-0.9
		c-0.1-15.5,0.2-31-0.1-46.5C137.1,99.6,131.9,100.4,127.5,101.6z"/>
</g>
</svg>
